X: 3443
T: Betsy Baker
R: reel
M: 4/4
K: Gmajor
e|"G"dB G>G|"D7"FA A>c|"G"BG Bd|"C"g2fe|
"G"dB G>G|"D7"FA A>c|"G"BG dd|"G"G2G:|
|:d|"C"ef gf/g/|"D"af d>d|"C"ef gf/g/|"D"a2gf|
"C"ef g>g|"D"fa "G"gf|"C"ed ef|"G"g2g:|

